lib/logo_tmp/nrk-logo-nrk-mp3.svg

<svg width="79" height="16" viewBox="0 0 79 16" fill="none" xmlns="http://www.w3.org/2000/svg">
<path d="M6.10352e-05 15V1.00123H4.59345V15H6.10352e-05ZM10.8428 3.2292L13.4845 15H8.45743L5.30313 1.00123H8.1226C8.76913 0.99284 9.39647 1.22075 9.88698 1.64208C10.3783 2.04574 10.7158 2.60611 10.8428 3.2292ZM14.1745 15V1.00123H18.7679V15H14.1745ZM22.2373 6.32474C21.7423 6.32957 21.2553 6.20006 20.828 5.95008C20.4065 5.70643 20.0563 5.35624 19.8127 4.93466C19.5625 4.50735 19.4329 4.02018 19.4379 3.525C19.4322 3.03283 19.5618 2.54857 19.8127 2.12512C20.0589 1.70811 20.4087 1.36174 20.828 1.11957C21.2554 0.869879 21.7423 0.740393 22.2373 0.744907C22.7293 0.739608 23.2134 0.86921 23.637 1.11957C24.0521 1.36386 24.3982 1.70995 24.6424 2.12512C24.893 2.54869 25.0226 3.03287 25.0173 3.525C25.0219 4.02014 24.8924 4.50722 24.6424 4.93466C24.4007 5.3544 24.0543 5.70429 23.637 5.95008C23.2133 6.20093 22.7289 6.33057 22.2366 6.32474H22.2373ZM25.727 15V1.00123H30.3208V15H25.727ZM36.1361 8.65123C36.149 8.66481 36.2475 8.82582 36.4318 9.13428C36.616 9.44273 36.8558 9.83709 37.1513 10.3173C37.447 10.7973 37.7591 11.3066 38.0874 11.8453C38.4158 12.384 38.7248 12.8934 39.0144 13.3734C39.3028 13.8534 39.6314 14.3955 40.0001 15H34.9532C34.6376 14.4873 34.3516 14.024 34.0953 13.61C33.839 13.1959 33.5666 12.749 33.2779 12.2692C32.9885 11.7899 32.7024 11.3233 32.4196 10.8693C32.1368 10.4154 31.8938 10.0178 31.6905 9.67653C31.4864 9.33499 31.345 9.10494 31.2663 8.98642C31.0714 8.69231 30.956 8.35264 30.9315 8.00059C30.9511 7.66272 31.0598 7.3361 31.2466 7.05392C31.3255 6.92248 31.4701 6.68912 31.6803 6.35394C31.8906 6.01876 32.1371 5.62119 32.4196 5.16114C32.7022 4.70109 32.9883 4.23116 33.2779 3.7514C33.5675 3.27163 33.8399 2.8214 34.0953 2.40078C34.352 1.9806 34.638 1.51398 34.9532 1.00091H40.0001L36.0963 7.36937C35.9755 7.55845 35.9074 7.77636 35.8991 8.00059C35.9121 8.236 35.9943 8.46233 36.1354 8.65123H36.1361Z" fill="white"/>
<path d="M64.4897 1H60.164C60.164 1 62.6209 5.0269 62.6486 5.07872C62.7416 5.19544 62.7935 5.33949 62.7964 5.48863C62.7993 5.63777 62.7529 5.7837 62.6645 5.9039L60.164 9.99582H64.4884C64.4884 9.99582 66.5735 6.59012 66.8587 6.11745C66.9943 5.93617 67.0666 5.71547 67.0645 5.4892C67.0624 5.26292 66.986 5.04358 66.8471 4.86483C66.5424 4.34331 66.5407 4.34365 64.4897 1Z" fill="white"/>
<path d="M78.0321 3.31811C77.8867 3.07089 76.5998 1 76.5998 1H67.3461L69.3677 4.38688H74.2421L72.2301 7.68003L74.4737 11.4429L72.3107 14.9941H76.2617C76.8969 13.956 77.848 12.3509 78.0463 12.0235C78.1824 11.8416 78.2549 11.6202 78.2529 11.3932C78.2508 11.1662 78.1742 10.9462 78.0347 10.7669C77.8365 10.4299 76.7789 8.75343 76.1467 7.72195C76.1467 7.72195 77.848 4.90643 78.0463 4.57734C78.1828 4.39504 78.2553 4.17292 78.2527 3.94532C78.2502 3.71772 78.1726 3.4973 78.0321 3.31811Z" fill="white"/>
<path d="M69.1291 8.14006C68.5201 9.13358 67.5015 10.7988 67.3115 11.1233C67.1773 11.296 67.1035 11.5079 67.1016 11.7265C67.0996 11.9451 67.1695 12.1583 67.3006 12.3333C67.4916 12.6502 68.5181 14.3283 69.1301 15.3281C69.7419 14.3283 70.7687 12.6502 70.9594 12.3333C71.0905 12.1583 71.1604 11.9451 71.1585 11.7265C71.1565 11.5078 71.0827 11.2959 70.9485 11.1233C70.7568 10.7988 69.7379 9.13358 69.1291 8.14006Z" fill="white"/>
<path d="M56.8314 1C56.3818 1.00302 55.9428 1.13662 55.5679 1.38453C55.25 1.57993 52.6567 3.77856 52.459 3.9459C52.2608 3.77856 49.6681 1.57993 49.3501 1.38453C48.9753 1.13662 48.5363 1.00302 48.0867 1H45.3334V13.3296L49.1605 10.4579V5.50682L52.459 7.98635L55.7576 5.50682V14.9922H59.6071V1H56.8314Z" fill="white"/>
</svg>

<svg xmlns="http://www.w3.org/2000/svg" viewBox="0 0 79 16"><path fill="#fff" d="M0 15V1.001h4.593V15H0ZM10.843 3.23 13.485 15H8.457L5.303 1.001h2.82a2.655 2.655 0 0 1 1.764.641c.491.404.829.964.956 1.587ZM14.175 15V1.001h4.593V15h-4.594Zm8.062-8.675a2.779 2.779 0 0 1-2.425-1.39 2.735 2.735 0 0 1-.374-1.41 2.685 2.685 0 0 1 .375-1.4 2.813 2.813 0 0 1 3.824-1.005c.415.244.761.59 1.005 1.005.251.424.38.908.375 1.4.005.495-.125.982-.375 1.41a2.8 2.8 0 0 1-1.005 1.015c-.424.25-.908.38-1.4.375ZM25.727 15V1.001h4.594V15h-4.594Zm10.41-6.349c.012.014.11.175.295.483.184.309.424.703.72 1.183a373.133 373.133 0 0 1 1.862 3.056c.289.48.617 1.023.986 1.627h-5.047c-.315-.513-.601-.976-.858-1.39-.256-.414-.528-.861-.817-1.34-.29-.48-.576-.947-.858-1.4a71.28 71.28 0 0 1-.73-1.193 20.74 20.74 0 0 0-.424-.69A2.041 2.041 0 0 1 30.932 8c.02-.338.128-.665.315-.947.079-.132.223-.365.433-.7a212.59 212.59 0 0 0 1.598-2.603l.817-1.35.858-1.4H40l-3.904 6.368c-.12.19-.189.407-.197.632.013.235.095.461.236.65h.001ZM64.49 1h-4.326s2.457 4.027 2.485 4.079a.679.679 0 0 1 .015.825l-2.5 4.092h4.324s2.085-3.406 2.37-3.879a1.033 1.033 0 0 0-.01-1.252c-.306-.522-.307-.521-2.358-3.865ZM78.032 3.318A393.325 393.325 0 0 0 76.6 1h-9.254l2.022 3.387h4.874L72.23 7.68l2.244 3.763-2.163 3.551h3.95c.636-1.038 1.587-2.643 1.785-2.97a1.037 1.037 0 0 0-.011-1.257c-.198-.337-1.256-2.014-1.888-3.045l1.9-3.145a1.035 1.035 0 0 0-.015-1.259Z"/><path fill="#fff" d="M69.13 8.14c-.61.994-1.629 2.659-1.819 2.983a.997.997 0 0 0-.01 1.21c.19.317 1.217 1.995 1.83 2.995.61-1 1.638-2.678 1.828-2.995a.998.998 0 0 0-.01-1.21c-.192-.324-1.211-1.99-1.82-2.983ZM56.831 1c-.45.003-.888.137-1.263.385-.318.195-2.911 2.394-3.109 2.56-.198-.166-2.79-2.365-3.109-2.56A2.318 2.318 0 0 0 48.087 1h-2.754v12.33l3.828-2.872V5.507l3.298 2.48 3.299-2.48v9.485h3.85V1H56.83Z"/></svg>
